images/gallery-deco.svg

<svg width="144" height="167" viewBox="0 0 144 167" fill="none" xmlns="http://www.w3.org/2000/svg">
<path fill-rule="evenodd" clip-rule="evenodd" d="M71.3194 1.12394C64.69 2.90154 54.6675 8.86143 45.5325 16.4421C-20.5006 71.3891 -13.506 151.275 58.687 166.018C115.846 177.676 172.431 74.2646 128.113 39.1319C100.447 17.1742 57.1731 41.8505 49.1343 84.0934C42.2961 120.167 77.74 146.465 101.334 122.886C125.66 98.5756 125.399 64.5926 100.812 64.3835C81.7072 64.2267 70.432 93.8176 87.1882 100.091C97.1062 103.803 108.799 92.2491 101.021 86.446C98.4634 84.5116 96.7408 84.9298 95.8534 87.5439C94.1308 92.9811 88.3888 96.8498 87.4492 93.2425C84.6826 82.9955 100.969 64.5404 107.39 70.6572C116.525 79.3358 108.799 104.221 92.1472 119.644C67.5088 142.491 46.2111 104.849 63.8548 69.5598C84.1606 28.9375 126.86 24.232 134.638 61.7695C143.042 102.182 100.551 161.835 64.5334 159.9C18.3884 157.443 -5.25829 110.234 18.5449 63.2861C30.9687 38.7142 57.6429 12.2075 77.4268 4.78359C85.3612 1.80359 80.2456 -1.22869 71.3194 1.12394Z" fill="black"/>
</svg>

<svg width="144" height="167" fill="none" xmlns="http://www.w3.org/2000/svg"><path fill-rule="evenodd" clip-rule="evenodd" d="M71.32 1.124C64.69 2.902 54.667 8.86 45.532 16.442-20.502 71.39-13.507 151.275 58.686 166.018c57.159 11.658 113.744-91.753 69.426-126.886-27.666-21.958-70.94 2.718-78.979 44.961-6.838 36.074 28.606 62.372 52.2 38.793 24.326-24.31 24.065-58.293-.522-58.502-19.105-.157-30.38 29.434-13.624 35.707 9.918 3.712 21.611-7.842 13.833-13.645-2.558-1.934-4.28-1.516-5.168 1.098-1.722 5.437-7.464 9.306-8.404 5.699-2.766-10.247 13.52-28.703 19.941-22.586 9.135 8.679 1.409 33.564-15.243 48.987-24.638 22.847-45.936-14.795-28.292-50.084 20.306-40.623 63.005-45.328 70.783-7.79 8.404 40.412-34.087 100.065-70.105 98.13-46.145-2.457-69.791-49.666-45.988-96.614C30.969 38.714 57.643 12.207 77.427 4.784c7.934-2.98 2.819-6.013-6.108-3.66Z" fill="#000"/></svg>
